icons/rail-light-11.svg

<?xml version="1.0" encoding="utf-8"?>
<!-- Generator: Adobe Illustrator 19.2.1, SVG Export Plug-In . SVG Version: 6.00 Build 0)  -->
<!DOCTYPE svg PUBLIC "-//W3C//DTD SVG 1.1//EN" "http://www.w3.org/Graphics/SVG/1.1/DTD/svg11.dtd">
<svg version="1.1"
	 id="svg4764" inkscape:version="0.91+devel+osxmenu r12911" sodipodi:docname="rail-light-11.svg" xmlns:cc="http://creativecommons.org/ns#" xmlns:dc="http://purl.org/dc/elements/1.1/" xmlns:inkscape="http://www.inkscape.org/namespaces/inkscape" xmlns:rdf="http://www.w3.org/1999/02/22-rdf-syntax-ns#" xmlns:sodipodi="http://sodipodi.sourceforge.net/DTD/sodipodi-0.dtd" xmlns:svg="http://www.w3.org/2000/svg"
	 xmlns="http://www.w3.org/2000/svg" xmlns:xlink="http://www.w3.org/1999/xlink" x="0px" y="0px" width="11px" height="11px"
	 viewBox="0 0 11 11" style="enable-background:new 0 0 11 11;" xml:space="preserve">
<path id="path14245" inkscape:connector-curvature="0" sodipodi:nodetypes="cccccccccccccccccccccccccccccccccccccccccccc" d="M4,0
	C3.5,0,3.5,0.5,3.5,0.5S3.5,1,4,1h1v0.9707L4,2c0,0-1,0-1,1v3c0,2,2,2,2,2h1c0,0,2,0,2-2V3c0-1-1-1-1-1H6V1h1c0.5,0,0.5-0.5,0.5-0.5
	S7.5,0,7,0H4z M5.5,3L7,3.5V5H5.5H4V3.5L5.5,3z M5.5,6C5.777,6,6,6.223,6,6.5S5.777,7,5.5,7S5,6.777,5,6.5S5.223,6,5.5,6z
	 M2.834,8.5L2,11h1.5l0.334-1h3.332L7.5,11H9L8.166,8.5H6.668L6.834,9H4.166l0.166-0.5H2.834z"/>
</svg>

<?xml version="1.0" encoding="UTF-8" standalone="no"?>
<!-- Generator: Adobe Illustrator 17.1.0, SVG Export Plug-In . SVG Version: 6.00 Build 0)  -->

<svg
   xmlns:dc="http://purl.org/dc/elements/1.1/"
   xmlns:cc="http://creativecommons.org/ns#"
   xmlns:rdf="http://www.w3.org/1999/02/22-rdf-syntax-ns#"
   xmlns:svg="http://www.w3.org/2000/svg"
   xmlns="http://www.w3.org/2000/svg"
   xmlns:sodipodi="http://sodipodi.sourceforge.net/DTD/sodipodi-0.dtd"
   xmlns:inkscape="http://www.inkscape.org/namespaces/inkscape"
   version="1.1"
   id="svg4764"
   x="0px"
   y="0px"
   height='11'
   width='11'
   viewBox="0 0 11 11"
   enable-background="new 0 0 11 11"
   xml:space="preserve"
   inkscape:version="0.91+devel+osxmenu r12911"
   sodipodi:docname="rail-light-11.svg"><metadata
     id="metadata8"><rdf:RDF><cc:Work
         rdf:about=""><dc:format>image/svg+xml</dc:format><dc:type
           rdf:resource="http://purl.org/dc/dcmitype/StillImage" /><dc:title /></cc:Work></rdf:RDF></metadata><defs
     id="defs6" /><sodipodi:namedview
     pagecolor="#ffffff"
     bordercolor="#666666"
     borderopacity="1"
     objecttolerance="10"
     gridtolerance="10"
     guidetolerance="10"
     inkscape:pageopacity="0"
     inkscape:pageshadow="2"
     inkscape:window-width="860"
     inkscape:window-height="706"
     id="namedview4"
     showgrid="true"
     inkscape:snap-bbox="true"
     inkscape:bbox-paths="true"
     inkscape:bbox-nodes="true"
     inkscape:snap-bbox-edge-midpoints="true"
     inkscape:snap-bbox-midpoints="true"
     inkscape:snap-nodes="true"
     inkscape:object-paths="true"
     inkscape:snap-intersection-paths="true"
     inkscape:object-nodes="true"
     inkscape:snap-smooth-nodes="true"
     inkscape:zoom="45.254834"
     inkscape:cx="12.022324"
     inkscape:cy="6.936044"
     inkscape:window-x="0"
     inkscape:window-y="0"
     inkscape:window-maximized="0"
     inkscape:current-layer="svg4764"><inkscape:grid
       type="xygrid"
       id="grid3336"
       color="#fd000d"
       opacity="0.1254902"
       empspacing="2"
       spacingx="0.5"
       spacingy="0.5" /></sodipodi:namedview><path
     style="opacity:1;fill:#000000;fill-opacity:1;stroke:none;stroke-width:1;stroke-linecap:round;stroke-linejoin:miter;stroke-miterlimit:4;stroke-dasharray:none;stroke-dashoffset:0;stroke-opacity:1"
     d="M 4,0 C 3.5,0 3.5,0.5 3.5,0.5 3.5,0.5 3.5,1 4,1 L 5,1 5,1.9707031 4,2 C 4,2 3,2 3,3 L 3,6 C 3,8 5,8 5,8 L 6,8 C 6,8 8,8 8,6 L 8,3 C 8,2 7,2 7,2 L 6,2 6,1 7,1 C 7.5,1 7.5,0.5 7.5,0.5 7.5,0.5 7.5,0 7,0 Z M 5.5,3 7,3.5 7,5 5.5,5 4,5 4,3.5 Z m 0,3 C 5.777,6 6,6.223 6,6.5 6,6.777 5.777,7 5.5,7 5.223,7 5,6.777 5,6.5 5,6.223 5.223,6 5.5,6 Z M 2.833984,8.5 2,11 3.5,11 3.833984,10 7.166016,10 7.5,11 9,11 8.166016,8.5 6.667969,8.5 6.833984,9 4.166016,9 4.332031,8.5 Z"
     id="path14245"
     inkscape:connector-curvature="0"
     sodipodi:nodetypes="cccccccccccccccccccccccccccccccccccccccccccc" /></svg>
